src/assets/icons/pul-icon-location.svg

<!-- Generated by IcoMoon.io -->
<svg version="1.1" xmlns="http://www.w3.org/2000/svg" width="16" height="16" viewBox="0 0 16 16">
<title>location</title>
<path d="M8 0c-2.941 0-5.333 2.393-5.333 5.333 0 2.83 4.849 10.205 5.055 10.517 0.061 0.094 0.166 0.15 0.278 0.15s0.217-0.056 0.278-0.15c0.207-0.312 5.055-7.687 5.055-10.517 0-2.941-2.393-5.333-5.333-5.333zM8 15.053c-1.044-1.632-4.667-7.456-4.667-9.72 0-2.573 2.093-4.667 4.667-4.667s4.667 2.093 4.667 4.667c0 2.263-3.623 8.088-4.667 9.72z"></path>
<path d="M8 3c-1.287 0-2.333 1.047-2.333 2.333s1.047 2.333 2.333 2.333 2.333-1.047 2.333-2.333-1.047-2.333-2.333-2.333zM8 7c-0.919 0-1.667-0.748-1.667-1.667s0.748-1.667 1.667-1.667 1.667 0.748 1.667 1.667-0.748 1.667-1.667 1.667z"></path>
</svg>

<svg xmlns="http://www.w3.org/2000/svg" viewBox="0 0 16 16">
    <path d="M8 0a5.34 5.34 0 0 0-5.333 5.333c0 2.83 4.849 10.205 5.055 10.517a.331.331 0 0 0 .556 0c.207-.312 5.055-7.687 5.055-10.517A5.34 5.34 0 0 0 8 0zm0 15.053c-1.044-1.632-4.667-7.456-4.667-9.72C3.333 2.76 5.426.666 8 .666s4.667 2.093 4.667 4.667c0 2.263-3.623 8.088-4.667 9.72z"/>
    <path d="M8 3C6.713 3 5.667 4.047 5.667 5.333S6.714 7.666 8 7.666s2.333-1.047 2.333-2.333S9.286 3 8 3zm0 4c-.919 0-1.667-.748-1.667-1.667S7.081 3.666 8 3.666s1.667.748 1.667 1.667S8.919 7 8 7z"/>
</svg>
